public/assets/vectors/github.svg

<?xml version="1.0" encoding="UTF-8" standalone="no"?>
<svg
   xmlns:dc="http://purl.org/dc/elements/1.1/"
   xmlns:cc="http://creativecommons.org/ns#"
   xmlns:rdf="http://www.w3.org/1999/02/22-rdf-syntax-ns#"
   xmlns:svg="http://www.w3.org/2000/svg"
   xmlns="http://www.w3.org/2000/svg"
   xmlns:sodipodi="http://sodipodi.sourceforge.net/DTD/sodipodi-0.dtd"
   xmlns:inkscape="http://www.inkscape.org/namespaces/inkscape"
   width="100pt"
   height="100pt"
   viewBox="0 0 100 100"
   version="1.1"
   id="svg5"
   sodipodi:docname="github.svg"
   style="fill:#000000"
   inkscape:version="0.92.4 (5da689c313, 2019-01-14)">
  <metadata
     id="metadata11">
    <rdf:RDF>
      <cc:Work
         rdf:about="">
        <dc:format>image/svg+xml</dc:format>
        <dc:type
           rdf:resource="http://purl.org/dc/dcmitype/StillImage" />
        <dc:title></dc:title>
      </cc:Work>
    </rdf:RDF>
  </metadata>
  <defs
     id="defs9" />
  <sodipodi:namedview
     pagecolor="#ffffff"
     bordercolor="#666666"
     borderopacity="1"
     objecttolerance="10"
     gridtolerance="10"
     guidetolerance="10"
     inkscape:pageopacity="0"
     inkscape:pageshadow="2"
     inkscape:window-width="1600"
     inkscape:window-height="877"
     id="namedview7"
     showgrid="false"
     inkscape:document-units="pt"
     inkscape:zoom="2.2125"
     inkscape:cx="53.333333"
     inkscape:cy="53.333333"
     inkscape:window-x="-8"
     inkscape:window-y="90"
     inkscape:window-maximized="1"
     inkscape:current-layer="svg5" />
  <g
     id="surface177135"
     transform="matrix(1.3670562,0,0,1.3670562,-4.682248,-3.6705633)">
    <path
       style="fill:#000000;fill-opacity:1;fill-rule:evenodd;stroke:none"
       d="M 39.996094,10 C 23.433594,10 10,23.433594 10,40.003906 c 0,13.25 8.59375,24.496094 20.515625,28.464844 1.5,0.273438 2.050781,-0.652344 2.050781,-1.445312 0,-0.714844 -0.02734,-2.601563 -0.04297,-5.101563 -8.34375,1.8125 -10.101563,-4.023437 -10.101563,-4.023437 -1.367187,-3.464844 -3.332031,-4.386719 -3.332031,-4.386719 -2.726563,-1.863281 0.207031,-1.824219 0.207031,-1.824219 3.007813,0.210938 4.59375,3.09375 4.59375,3.09375 2.675781,4.582031 7.023437,3.257812 8.730469,2.492188 0.269531,-1.9375 1.046875,-3.261719 1.902344,-4.011719 -6.660157,-0.757813 -13.664063,-3.328125 -13.664063,-14.828125 0,-3.273438 1.171875,-5.949219 3.089844,-8.046875 -0.308594,-0.761719 -1.339844,-3.8125 0.292969,-7.941407 0,0 2.519531,-0.808593 8.25,3.074219 2.394531,-0.664062 4.960937,-0.996093 7.511718,-1.007812 2.546875,0.01172 5.113282,0.34375 7.507813,1.007812 5.726562,-3.882812 8.242187,-3.074219 8.242187,-3.074219 1.636719,4.128907 0.609375,7.179688 0.296875,7.941407 1.925781,2.097656 3.085938,4.773437 3.085938,8.046875 0,11.527344 -7.015625,14.0625 -13.699219,14.804687 1.078125,0.925781 2.039062,2.757813 2.039062,5.554688 0,4.007812 -0.03906,7.246093 -0.03906,8.230469 0,0.800781 0.539062,1.734374 2.0625,1.441406 C 61.414062,64.488281 70,53.253906 70,40.003906 70,23.433594 56.566406,10 39.996094,10 Z m 0,0"
       id="path2"
       inkscape:connector-curvature="0" />
  </g>
</svg>

<?xml version="1.0" encoding="UTF-8" standalone="yes"?>
<svg xmlns="http://www.w3.org/2000/svg" xmlns:xlink="http://www.w3.org/1999/xlink" width="80pt" height="80pt" viewBox="0 0 80 80" version="1.1" fill="#000000">
  <g id="surface177135">
    <path style=" stroke:none;fill-rule:evenodd;fill:#000000;fill-opacity:1;" d="M 39.996094 10 C 23.433594 10 10 23.433594 10 40.003906 C 10 53.253906 18.59375 64.5 30.515625 68.46875 C 32.015625 68.742188 32.566406 67.816406 32.566406 67.023438 C 32.566406 66.308594 32.539062 64.421875 32.523438 61.921875 C 24.179688 63.734375 22.421875 57.898438 22.421875 57.898438 C 21.054688 54.433594 19.089844 53.511719 19.089844 53.511719 C 16.363281 51.648438 19.296875 51.6875 19.296875 51.6875 C 22.304688 51.898438 23.890625 54.78125 23.890625 54.78125 C 26.566406 59.363281 30.914062 58.039062 32.621094 57.273438 C 32.890625 55.335938 33.667969 54.011719 34.523438 53.261719 C 27.863281 52.503906 20.859375 49.933594 20.859375 38.433594 C 20.859375 35.160156 22.03125 32.484375 23.949219 30.386719 C 23.640625 29.625 22.609375 26.574219 24.242188 22.445312 C 24.242188 22.445312 26.761719 21.636719 32.492188 25.519531 C 34.886719 24.855469 37.453125 24.523438 40.003906 24.511719 C 42.550781 24.523438 45.117188 24.855469 47.511719 25.519531 C 53.238281 21.636719 55.753906 22.445312 55.753906 22.445312 C 57.390625 26.574219 56.363281 29.625 56.050781 30.386719 C 57.976562 32.484375 59.136719 35.160156 59.136719 38.433594 C 59.136719 49.960938 52.121094 52.496094 45.4375 53.238281 C 46.515625 54.164062 47.476562 55.996094 47.476562 58.792969 C 47.476562 62.800781 47.4375 66.039062 47.4375 67.023438 C 47.4375 67.824219 47.976562 68.757812 49.5 68.464844 C 61.414062 64.488281 70 53.253906 70 40.003906 C 70 23.433594 56.566406 10 39.996094 10 Z M 39.996094 10 "/>
  </g>
</svg>
